public/favicon.svg

<svg fill="none" height="32" viewBox="0 0 32 32" width="32" xmlns="http://www.w3.org/2000/svg"><path d="m16.0231 4.79987c6.1987 0 11.2241 5.04169 11.2241 11.26133 0 6.2196-5.0254 11.2613-11.2241 11.2613-6.19879 0-11.22419-5.0417-11.22419-11.2613 0-6.21964 5.0254-11.26133 11.22419-11.26133z" fill="#5d3ede" stroke="#3dd7ac" stroke-width=".111498"/><path d="m7.08417 14.772c-.17556 1.2746-.07578 2.572.29261 3.8048.36838 1.2328.99681 2.3723 1.84291 3.3416.84611.9693 1.89021 1.7459 3.06191 2.2775s2.4437.8058 3.7304.8041c1.2866-.0017 2.5579-.2793 3.7282-.814s2.2123-1.3141 3.0558-2.2857c.8436-.9715 1.469-2.1127 1.8341-3.3464.3651-1.2338.4614-2.5315.2824-3.8056l-2.189.3074c.135.9612.0624 1.9402-.2131 2.8709-.2754.9307-.7472 1.7916-1.3835 2.5245-.6364.733-1.4225 1.321-2.3053 1.7243-.8829.4034-1.8419.6128-2.8126.6141-.9706.0013-1.9302-.2055-2.8141-.6066-.884-.401-1.6716-.9869-2.3099-1.7181-.6383-.7313-1.11237-1.5909-1.39028-2.5209-.2779-.93-.35317-1.9087-.22073-2.8703z" fill="#3dd7ac"/></svg>

<svg width="32" height="32" viewBox="0 0 32 32" fill="none" xmlns="http://www.w3.org/2000/svg">
<path d="M16.0231 4.79987C22.2218 4.79987 27.2472 9.84156 27.2472 16.0612C27.2472 22.2808 22.2218 27.3225 16.0231 27.3225C9.82431 27.3225 4.79891 22.2808 4.79891 16.0612C4.79891 9.84156 9.82431 4.79987 16.0231 4.79987Z" fill="#5D3EDE" stroke="#3DD7AC" stroke-width="0.111498"/>
<path d="M7.08417 14.772C6.90861 16.0466 7.00839 17.344 7.37678 18.5768C7.74516 19.8096 8.37359 20.9491 9.21969 21.9184C10.0658 22.8877 11.1099 23.6643 12.2816 24.1959C13.4533 24.7275 14.7253 25.0017 16.012 25C17.2986 24.9983 18.5699 24.7207 19.7402 24.186C20.9105 23.6513 21.9525 22.8719 22.796 21.9003C23.6396 20.9288 24.265 19.7876 24.6301 18.5539C24.9952 17.3201 25.0915 16.0224 24.9125 14.7483L22.7235 15.0557C22.8585 16.0169 22.7859 16.9959 22.5104 17.9266C22.235 18.8573 21.7632 19.7182 21.1269 20.4511C20.4905 21.1841 19.7044 21.7721 18.8216 22.1754C17.9387 22.5788 16.9797 22.7882 16.009 22.7895C15.0384 22.7908 14.0788 22.584 13.1949 22.1829C12.3109 21.7819 11.5233 21.196 10.885 20.4648C10.2467 19.7335 9.77263 18.8739 9.49472 17.9439C9.21682 17.0139 9.14155 16.0352 9.27399 15.0736L7.08417 14.772Z" fill="#3DD7AC"/>
</svg>
